!!!OTL: Lustige Handwerksburschen (2-93) S. 271
!!!id: P0964
**kern
*clefG2
*k[]
*G:
{8d
=1
8g
8g
8b
8b
=2
8dd
8dd
8ee}
=3
{8ee
=4
8dd
8dd
8cc
8a
=5
8b
8b
8b}
=6
{8d
=7
8g
8a
8b
8cc
=8
8dd
8dd
8ee}
=9
{8ee
=10
8dd
8dd
8cc
8a
=11
8b
8b
8b}
=12
{8d
=13
8g
8a
8b
8cc
=14
4dd}
=15
{4ee
=16
8dd
8dd
8cc
8dd
=17
4b}
8r
==
*-
!!!minrhy: 8
!!!meters: 2/4 ]  ZZ[6
!!!cut: Lustige Handwerksburschen (2-93) S. 271
!!!reg: Lothringen
!!!trd: PINCK, Louis: Verklingende Weisen, Bd 2, Metz 1928
!!!rhy1: X  XXXX  XXX
!!!rhy2: X  XXXX  XXX
!!!key: P0964  08  G 2/4 ]  ZZ[6
!!!mod: SECHSTONSKALA DUR ?]  AMBITUS[9
!!!kad: 636353
!!!akz: 15_53_15_53_15_53_
!!!fot: 'a__b__av_b__av_bs"
!!!for: 'a__a__a__a__aw_aw_
!!!fok: '/__\__/__\__/__\__
!! PHRAS[AUFTAKTIG]
!!!fkt: Berufslied, Brautwerbung
!! LOTH VKL
!! PR[33] 2K[2] 2G[22] 3K[4] 3G[0] 4A[8] 4Ü[0] 5A[0] 6K[0] 6G[0]
!! 7K[0] 7G[0] 8A[0] MEHR[0] SI[35] ABS[51] SR[24] SP[12]
!! ST[16] 2k[2] 2g[18] 3k[4] 3g[2] 4d[6] 4ü[0] 5d[0] 6k[0] 6g[0]
!! 7k[0] 7g[0] 8d[0] mehr[0] si[31] dm[+4] sr[20] sp[12]
!! 1F[27] 2F[67] 3F[6] 4F[0] LF[0] 2P[0] 3P[0] 4P[0] TRI[0] DF[3] AB[52]
!! TF[0] U3K[0] U3[0] U4[0] U4Ü[0] U5[15] U6K[0] U6[6] U7K[0] U7[6]
!! N1[31] N2K[0] N2[21] N3K[0] N3[19] N4[0] N4Ü[0] N5[2] N6K[0] N6[0]
!!!n7k: 0] N7[0] O1[0] O2K[0] O2[0] O3K[0] O3[0] HÖ[0
